material/.icons/material/magnify-minus-outline.svg

<svg xmlns="http://www.w3.org/2000/svg" viewBox="0 0 24 24"><path d="M15.5 14h-.79l-.28-.27A6.471 6.471 0 0016 9.5 6.5 6.5 0 009.5 3 6.5 6.5 0 003 9.5 6.5 6.5 0 009.5 16c1.61 0 3.09-.59 4.23-1.57l.27.28v.79l5 5 1.5-1.5-5-5m-6 0C7 14 5 12 5 9.5S7 5 9.5 5 14 7 14 9.5 12 14 9.5 14M7 9h5v1H7V9z"/></svg>

<?xml version="1.0" encoding="UTF-8"?><!DOCTYPE svg PUBLIC "-//W3C//DTD SVG 1.1//EN" "http://www.w3.org/Graphics/SVG/1.1/DTD/svg11.dtd"><svg xmlns="http://www.w3.org/2000/svg" xmlns:xlink="http://www.w3.org/1999/xlink" version="1.1" id="mdi-magnify-minus-outline" width="24" height="24" viewBox="0 0 24 24"><path d="M15.5,14H14.71L14.43,13.73C15.41,12.59 16,11.11 16,9.5A6.5,6.5 0 0,0 9.5,3A6.5,6.5 0 0,0 3,9.5A6.5,6.5 0 0,0 9.5,16C11.11,16 12.59,15.41 13.73,14.43L14,14.71V15.5L19,20.5L20.5,19L15.5,14M9.5,14C7,14 5,12 5,9.5C5,7 7,5 9.5,5C12,5 14,7 14,9.5C14,12 12,14 9.5,14M7,9H12V10H7V9Z" /></svg>
